src/assets/img/icon-delete.svg

<?xml version="1.0" encoding="UTF-8"?>
<svg width="26px" height="19px" viewBox="0 0 26 19" version="1.1" xmlns="http://www.w3.org/2000/svg" xmlns:xlink="http://www.w3.org/1999/xlink">
    <!-- Generator: Sketch 50.2 (55047) - http://www.bohemiancoding.com/sketch -->
    <title>Delete</title>
    <desc>Created with Sketch.</desc>
    <defs></defs>
    <g id="Symbols" stroke="none" stroke-width="1" fill="none" fill-rule="evenodd">
        <g id="Keypad/Decimal-(with-operators)" transform="translate(-297.000000, -200.000000)" fill="#4A4A4A">
            <g id="Keypad/Decimal" transform="translate(-1.000000, 0.000000)">
                <path d="M314.275793,210.324706 L311.199149,213.462807 L310.788123,213.882043 L309.966072,213.043571 L310.377098,212.624334 L313.453742,209.486233 L310.377098,206.348132 L309.966072,205.928896 L310.788123,205.090423 L311.199149,205.509659 L314.275793,208.647761 L317.352438,205.50966 L317.763464,205.090423 L318.585515,205.928896 L318.174489,206.348132 L315.097845,209.486233 L318.174489,212.624334 L318.585515,213.04357 L317.763463,213.882043 L317.352437,213.462807 L314.275793,210.324706 Z M298,209.509744 L307.300453,200 L320.084681,200 C322.015655,200 323.576247,201.597706 323.576247,203.568576 L323.576247,215.403891 C323.576247,217.387517 322.01302,218.972466 320.084681,218.972466 L307.300453,218.972466 L298,209.509744 Z M307.300453,201.185779 L308.123522,200.837434 L298.823069,210.347178 L298.821031,208.670232 L308.121485,218.132954 L307.300453,217.786687 L320.084681,217.786687 C321.375392,217.786687 322.41369,216.728108 322.41369,215.403891 L322.41369,203.568576 C322.41369,202.250984 321.372016,201.185779 320.084681,201.185779 L307.300453,201.185779 Z" id="Delete"></path>
            </g>
        </g>
    </g>
</svg>

<?xml version="1.0" encoding="UTF-8" standalone="no"?>
<svg
   xmlns:dc="http://purl.org/dc/elements/1.1/"
   xmlns:cc="http://creativecommons.org/ns#"
   xmlns:rdf="http://www.w3.org/1999/02/22-rdf-syntax-ns#"
   xmlns:svg="http://www.w3.org/2000/svg"
   xmlns="http://www.w3.org/2000/svg"
   xmlns:sodipodi="http://sodipodi.sourceforge.net/DTD/sodipodi-0.dtd"
   xmlns:inkscape="http://www.inkscape.org/namespaces/inkscape"
   width="26px"
   height="19px"
   viewBox="0 0 26 19"
   version="1.1"
   id="svg12"
   sodipodi:docname="icon-delete.svg"
   inkscape:version="1.0.2 (e86c870879, 2021-01-15, custom)">
  <metadata
     id="metadata16">
    <rdf:RDF>
      <cc:Work
         rdf:about="">
        <dc:format>image/svg+xml</dc:format>
        <dc:type
           rdf:resource="http://purl.org/dc/dcmitype/StillImage" />
      </cc:Work>
    </rdf:RDF>
  </metadata>
  <sodipodi:namedview
     pagecolor="#ffffff"
     bordercolor="#666666"
     borderopacity="1"
     objecttolerance="10"
     gridtolerance="10"
     guidetolerance="10"
     inkscape:pageopacity="0"
     inkscape:pageshadow="2"
     inkscape:window-width="1920"
     inkscape:window-height="1017"
     id="namedview14"
     showgrid="false"
     showguides="true"
     inkscape:guide-bbox="true"
     inkscape:zoom="21.565"
     inkscape:cx="0.94320652"
     inkscape:cy="9.7520816"
     inkscape:window-x="-8"
     inkscape:window-y="-8"
     inkscape:window-maximized="1"
     inkscape:current-layer="svg12" />
  <!-- Generator: Sketch 50.2 (55047) - http://www.bohemiancoding.com/sketch -->
  <title
     id="title2">Delete</title>
  <desc
     id="desc4">Created with Sketch.</desc>
  <defs
     id="defs6" />
  <g
     id="Symbols"
     stroke="none"
     stroke-width="1"
     fill="none"
     fill-rule="evenodd">
    <g
       id="Keypad/Decimal-(with-operators)"
       transform="translate(-297.000000, -200.000000)"
       fill="#FFFFFF">
      <g
         id="Keypad/Decimal"
         transform="translate(-1.000000, 0.000000)">
        <path
           d="m 314.27579,210.32471 -3.07664,3.1381 -0.41103,0.41923 -0.82205,-0.83847 0.41103,-0.41924 3.07664,-3.1381 -3.07664,-3.1381 -0.41103,-0.41923 0.82205,-0.83848 0.41103,0.41924 3.07664,3.1381 3.07665,-3.1381 0.41102,-0.41924 0.82205,0.83848 -0.41102,0.41923 -3.07665,3.1381 3.07665,3.1381 0.41102,0.41924 -0.82205,0.83847 -0.41102,-0.41923 z M 298,209.51 307.30045,200 h 12.78423 c 1.93097,0 3.49157,1.59771 3.49157,3.56858 v 11.83531 c 0,1.98363 -1.56323,3.56858 -3.49157,3.56858 h -12.78423 z m 9.783,-8.324 -8.141,8.324 8.141,8.277 12.30172,-3.1e-4 c 1.29071,-3e-5 2.32901,-1.05858 2.32901,-2.3828 v -11.83531 c 0,-1.3176 -1.04167,-2.38256 -2.32901,-2.38258 z"
           id="Delete"
           sodipodi:nodetypes="cccccccccccccccccccccccsssscccccssssc" />
      </g>
    </g>
  </g>
</svg>
